icons/op-calendar-24.svg

<svg width="24" height="24" viewBox="0 0 24 24" fill="none" xmlns="http://www.w3.org/2000/svg">
<path d="M11.4667 12H9.33333V10H11.4667V12ZM14.6667 12H12.5333V10H14.6667V12ZM17.8667 12H15.7333V10H17.8667V12ZM8.26667 15H6.13333V13H8.26667V15ZM11.4667 15H9.33333V13H11.4667V15ZM14.6667 15H12.5333V13H14.6667V15ZM17.8667 15H15.7333V13H17.8667V15ZM8.26667 18H6.13333V16H8.26667V18ZM11.4667 18H9.33333V16H11.4667V18ZM14.6667 18H12.5333V16H14.6667V18ZM17.8667 6V4H14.6667V6H9.33333V4H6.13333V6H4V20H20V6H17.8667ZM15.7333 5H16.8V7H15.7333V5ZM7.2 5H8.26667V7H7.2V5ZM18.9333 19H5.06667V9H18.9333V19Z" fill="black"/>
</svg>

<svg xmlns="http://www.w3.org/2000/svg" width="24" height="24" viewBox="0 0 24 24"><path d="M11.467 12H9.333v-2h2.134v2Zm3.2 0h-2.134v-2h2.134v2Zm3.2 0h-2.134v-2h2.134v2Zm-9.6 3H6.133v-2h2.134v2Zm3.2 0H9.333v-2h2.134v2Zm3.2 0h-2.134v-2h2.134v2Zm3.2 0h-2.134v-2h2.134v2Zm-9.6 3H6.133v-2h2.134v2Zm3.2 0H9.333v-2h2.134v2Zm3.2 0h-2.134v-2h2.134v2Zm3.2-12V4h-3.2v2H9.333V4h-3.2v2H4v14h16V6h-2.133Zm-2.134-1H16.8v2h-1.067V5ZM7.2 5h1.067v2H7.2V5Zm11.733 14H5.067V9h13.866v10Z"/></svg>
